X: 20959
T: Jubilant Goat, The
R: polka
M: 2/4
K: Amajor
AE/F/ AB|ce ea|fa/f/ ec|BA Fc/B/|
AE/F/ AB|ce eA|fa/f/ e/f/e/c/|BA A:|
fa/f/ ec|BA B2|AE/F/ AB|ce B2|
[1 a2 e/f/e/c/|BA Fc/B/|AE/F/ Ac|BA A:|
[2 AE/F/ AB|ce eA|f/g/a/f/ e/f/e/c/|BA A||

